public/images/icons/bde/social-icons/instagram.svg

<svg width="39" height="34" viewBox="0 0 39 34" fill="none" xmlns="http://www.w3.org/2000/svg">
<rect x="0.700195" y="0.5" width="37" height="33" rx="7.5" fill="black" stroke="white"/>
<path d="M28.4622 10.4498C28.4622 11.2505 27.732 11.8996 26.8312 11.8996C25.9304 11.8996 25.2002 11.2505 25.2002 10.4498C25.2002 9.64909 25.9304 9 26.8312 9C27.732 9 28.4622 9.64909 28.4622 10.4498Z" fill="white"/>
<path fill-rule="evenodd" clip-rule="evenodd" d="M26.2002 7H13.2002C10.4388 7 8.2002 9.23858 8.2002 12V22C8.2002 24.7614 10.4388 27 13.2002 27H26.2002C28.9616 27 31.2002 24.7614 31.2002 22V12C31.2002 9.23858 28.9616 7 26.2002 7ZM13.2002 5C9.3342 5 6.2002 8.13401 6.2002 12V22C6.2002 25.866 9.3342 29 13.2002 29H26.2002C30.0662 29 33.2002 25.866 33.2002 22V12C33.2002 8.13401 30.0662 5 26.2002 5H13.2002Z" fill="white"/>
<path fill-rule="evenodd" clip-rule="evenodd" d="M20.2002 13.45H19.2002C17.2396 13.45 15.6502 15.0394 15.6502 17C15.6502 18.9606 17.2396 20.55 19.2002 20.55H20.2002C22.1608 20.55 23.7502 18.9606 23.7502 17C23.7502 15.0394 22.1608 13.45 20.2002 13.45ZM19.2002 11C15.8865 11 13.2002 13.6863 13.2002 17C13.2002 20.3137 15.8865 23 19.2002 23H20.2002C23.5139 23 26.2002 20.3137 26.2002 17C26.2002 13.6863 23.5139 11 20.2002 11H19.2002Z" fill="white"/>
</svg>

<svg fill="none" viewBox="0 0 39 34"><rect width="37" height="33" x=".7" y=".5" fill="#000" stroke="#fff" rx="7.5"/><path fill="#fff" d="M28.462 10.45c0 .8-.73 1.45-1.63 1.45-.902 0-1.632-.65-1.632-1.45 0-.8.73-1.45 1.631-1.45s1.631.65 1.631 1.45z"/><path fill="#fff" fill-rule="evenodd" d="M26.2 7h-13a5 5 0 00-5 5v10a5 5 0 005 5h13a5 5 0 005-5V12a5 5 0 00-5-5zm-13-2a7 7 0 00-7 7v10a7 7 0 007 7h13a7 7 0 007-7V12a7 7 0 00-7-7h-13z" clip-rule="evenodd"/><path fill="#fff" fill-rule="evenodd" d="M20.2 13.45h-1a3.55 3.55 0 000 7.1h1a3.55 3.55 0 000-7.1zm-1-2.45a6 6 0 000 12h1a6 6 0 000-12h-1z" clip-rule="evenodd"/></svg>
